packages/katcn/src/icons/svg/humidity.svg

<svg width="24" height="25" viewBox="0 0 24 25" fill="none" xmlns="http://www.w3.org/2000/svg">
<path d="M15.8 23.968C13.3 23.968 11 22.668 9.69999 20.568C8.39999 18.468 8.29999 15.868 9.39999 13.568L14.9 2.46796C15.2 1.76796 16.3 1.76796 16.7 2.46796L22.2 13.568C23.3 15.768 23.2 18.468 21.9 20.568C20.6 22.668 18.3 23.968 15.8 23.968ZM15.8 5.16796L11.2 14.468C10.4 16.068 10.5 17.968 11.4 19.468C12.3 20.968 14 21.968 15.8 21.968C17.6 21.968 19.3 21.068 20.2 19.468C21.2 17.968 21.2 16.068 20.4 14.468L15.8 5.16796Z" fill="black"/>
<path d="M4.80001 12.968C3.50001 12.968 2.30001 12.268 1.60001 11.168C0.900014 10.068 0.800014 8.66796 1.40001 7.46796L3.90001 2.46796C4.20001 1.76796 5.40001 1.76796 5.70001 2.46796L8.20001 7.46796C8.80001 8.66796 8.70001 10.068 8.00001 11.168C7.40001 12.368 6.10001 12.968 4.80001 12.968ZM4.80001 5.16796L3.20001 8.36796C2.90001 8.96796 2.90001 9.56796 3.30001 10.168C3.60001 10.668 4.20001 10.968 4.80001 10.968C5.40001 10.968 6.00001 10.668 6.40001 10.168C6.70001 9.56796 6.70001 8.96796 6.40001 8.36796L4.80001 5.16796Z" fill="black"/>
</svg>

<svg xmlns="http://www.w3.org/2000/svg" fill="none" viewBox="0 0 24 25"><path fill="#000" d="M15.8 23.968c-2.5 0-4.8-1.3-6.1-3.4s-1.4-4.7-.3-7l5.5-11.1c.3-.7 1.4-.7 1.8 0l5.5 11.1c1.1 2.2 1 4.9-.3 7s-3.6 3.4-6.1 3.4m0-18.8-4.6 9.3c-.8 1.6-.7 3.5.2 5s2.6 2.5 4.4 2.5 3.5-.9 4.4-2.5c1-1.5 1-3.4.2-5zm-11 7.8c-1.3 0-2.5-.7-3.2-1.8s-.8-2.5-.2-3.7l2.5-5c.3-.7 1.5-.7 1.8 0l2.5 5c.6 1.2.5 2.6-.2 3.7-.6 1.2-1.9 1.8-3.2 1.8m0-7.8-1.6 3.2c-.3.6-.3 1.2.1 1.8.3.5.9.8 1.5.8s1.2-.3 1.6-.8q.45-.9 0-1.8z"/></svg>
